src/pos-icons/format-line-weight.svg

<svg height="24" viewBox="0 0 24 24" width="24" xmlns="http://www.w3.org/2000/svg"><path d="m3 17h18v-2h-18zm0 3h18v-1h-18zm0-7h18v-3h-18zm0-9v4h18v-4z"/></svg>

<?xml version="1.0" encoding="UTF-8"?><!DOCTYPE svg PUBLIC "-//W3C//DTD SVG 1.1//EN" "http://www.w3.org/Graphics/SVG/1.1/DTD/svg11.dtd"><svg xmlns="http://www.w3.org/2000/svg" xmlns:xlink="http://www.w3.org/1999/xlink" version="1.1" id="mdi-format-line-weight" width="24" height="24" viewBox="0 0 24 24"><path d="M3,17H21V15H3V17M3,20H21V19H3V20M3,13H21V10H3V13M3,4V8H21V4H3Z" /></svg>
